!!!COM:	la Rue, Pierre de
!!!CDT:	~1452///-1518/11/20
!!!OPR:	Missa Conceptio tua
!!!ONM:	1
!!!OTL:	Kyrie
!!!AGN:	Mass; Kyrie
!!!SCT:	Rue1006a
!!!SCA:	Rue1006a
!!!voices-OPR:	5
!!!voices:	5
**kern	**kern	**kern	**kern	**kern
*Ivox	*Ivox	*Ivox	*Ivox	*Ivox
*I"Bassus	*I"Tenor2	*I"Tenor1	*I"Contra	*I"Discantus
*I'B	*I'T2	*I'T1	*I'C	*I'D
*staff5	*staff4	*staff3	*staff2	*staff1
*>[A,B,C]	*>[A,B,C]	*>[A,B,C]	*>[A,B,C]	*>[A,B,C]
*>A	*>A	*>A	*>A	*>A
*clefF4	*clefF4	*clefGv2	*clefGv2	*clefGv2
*k[]	*k[]	*k[]	*k[]	*k[]
*M3/1	*M3/1	*M3/1	*M3/1	*M3/1
*met(O)	*met(O)	*met(O)	*met(O)	*met(O)
!!section: Kyrie I
!!!OMD: Kyrie I
=1-	=1-	=1-	=1-	=1-
1.D	0.r	0.r	0D	0.r
2C/	.	.	.	.
1BB	.	.	1D	.
=2	=2	=2	=2	=2
1AA	0.r	0.r	1C	0.r
0D	.	.	0F	.
=3	=3	=3	=3	=3
1GG	0.r	0.r	2.G/	0d
.	.	.	4E/	.
2.D\	.	.	4F/	.
.	.	.	4G/	.
.	.	.	1A	.
4C/	.	.	.	.
4BB/	.	.	.	1d
4AA/	.	.	.	.
2BB/	.	.	2G#i/	.
=4	=4	=4	=4	=4
1AA	1r	0.r	1A	1c
0DD	0D	.	2A/	0f
.	.	.	1F	.
.	.	.	4E/	.
.	.	.	4D/	.
=5	=5	=5	=5	=5
0.r	1C	0.r	2E/	2.g\
.	.	.	1c	.
.	.	.	.	4e\
.	1F	.	.	4f\
.	.	.	.	4g\
.	.	.	2A/	1a
.	1E	.	1B	.
.	.	.	.	2g#i\
=6	=6	=6	=6	=6
2r	2.F\	0D	0A	1a
1D	.	.	.	.
.	4E\	.	.	.
.	4F\	.	.	1r
.	4G\	.	.	.
2C/	1A	.	.	.
1BB	.	1D	1r	2.d\
.	2G#i\	.	.	.
.	.	.	.	4e\
=7	=7	=7	=7	=7
1AA	0.A	1C	0.r	2f\
.	.	.	.	2e\
0D	.	0F	.	2d\
.	.	.	.	2.f\
.	.	.	.	4e\
.	.	.	.	4d\
.	.	.	.	4c\
=8	=8	=8	=8	=8
1GG	1r	2.G/	0.r	2B\
.	.	.	.	2g\
.	.	4E/	.	.
1D	1r	4F/	.	4f\
.	.	4G/	.	4e\
.	.	1A	.	4d\
.	.	.	.	4c\
1BB	1D	.	.	1d
.	.	2G#i/	.	.
=9	=9	=9	=9	=9
2.AA/	1E	0.A	2r	0.c
.	.	.	2.A/	.
4BB/	.	.	.	.
2C/	2E\	.	.	.
.	.	.	4B\	.
2.FF/	1C	.	2c\	.
.	.	.	2.F/	.
4GG/	.	.	.	.
2AA/	2C/	.	.	.
.	.	.	4G/	.
=10	=10	=10	=10	=10
2DD/	2AA/	1r	4A/	1.d
.	.	.	4G/	.
2.AA/	2.C/	.	4F/	.
.	.	.	4E/	.
.	.	1r	2F/	.
4EE/	4BB/	.	.	.
2GG/	1BB	.	1E	2r
1FF	.	1A	.	1r
.	2AA/	.	2D/	.
=11	=11	=11	=11	=11
[0.EE	0BB	0G	0E	0e
.	2r	1G	2r	1e
.	[2BB/	.	[2E/	.
=12	=12	=12	=12	=12
0EE]	2BB/]	0E	4E/]	0g
.	.	.	4F/	.
.	1E	.	4G/	.
.	.	.	4A/	.
.	.	.	2B\	.
.	2C/	.	2c\	.
1r	1D	1F	1A	1f
=13	=13	=13	=13	=13
2.EE/	1.BB	2.G/	1.G	4e\
.	.	.	.	4d\
.	.	.	.	1e
4FF/	.	4F/	.	.
2GG/	.	2D/	.	.
2FF/	2AA/	2F/	2A/	2.d\
2GG/	2BB/	1E	2G/	.
.	.	.	.	4c\
2AA/	2C/	.	2E/	2c\
=14	=14	=14	=14	=14
4DD/	2AA/	1D	1F	2d\
4EE/	.	.	.	.
4FF/	1AA	.	.	4A/
4GG/	.	.	.	4B\
2AA/	.	1r	2E/	4c\
.	.	.	.	4d\
2EE/	2GG/	.	1E	2e\
1FF	1AA	1A	.	2A/
.	.	.	2D/	2f\
=15	=15	=15	=15	=15
1EE	1BB	2G/	1E	2.g\
.	.	1E	.	.
.	.	.	.	4f\
1r	1r	.	2C/	2e\
.	.	2F/	2D/	4d\
.	.	.	.	4c\
2.EE/	[1BB	2.G/	1E	2B\
.	.	.	.	[2B\
4FF/	.	4F/	.	.
=16	=16	=16	=16	=16
2GG/	2BB/]	2D/	2r	4B\]
.	.	.	.	4c\
2DD/	2AA/	2F/	2.A/	2d\
1AA	1C	2E/	.	2A/
.	.	.	4G/	.
.	.	1A	4F/	2f\
.	.	.	4E/	.
2.EE/	2.BB/	.	2E/	2g\
.	.	2G/	2c\	[2e\
4FF/	4AA/	.	.	.
=17	=17	=17	=17	=17
2GG/	2BB/	2E/	2B\	4e\]
.	.	.	.	4d\
2AA/	2C/	2F/	2A/	4c\
.	.	.	.	4B\
2GG/	2.D\	4G/	2B\	2A/
.	.	4D/	.	.
2DD/	.	2F/	2.A/	1d
.	4C/	.	.	.
1AA	2AA/	1E	.	.
.	.	.	4G/	.
.	2C/	.	2E/	2c#i\
=18	=18	=18	=18	=18
0.DDl	1BB-i	0.Dl	2.F/	0.dl
.	.	.	4G/	.
.	0AAl	.	0Al	.
!!LO:LB:i:g=z
=19||	=19||	=19||	=19||	=19||
*>B	*>B	*>B	*>B	*>B
*clefF4	*clefF4	*clefGv2	*clefGv2	*clefGv2
*k[]	*k[]	*k[]	*k[]	*k[]
*M2/1	*M2/1	*M2/1	*M2/1	*M2/1
*met(C2)	*met(C2)	*met(C2)	*met(C2)	*met(C2)
!!section: Christe
!!!OMD: Christe
[0DD	0r	0D	[0A	1r
.	.	.	.	[1d
=20.	=20.	=20.	=20.	=20.
0DD]	0D	0F	0A]	1d]
.	.	.	.	[1f
=21	=21	=21	=21	=21
[0DD	0F	0D	[0A	2f\]
.	.	.	.	2d\
.	.	.	.	[1d
=22.	=22.	=22.	=22.	=22.
0DD]	1.D	1.F	0A]	1d]
.	.	.	.	[1f
.	4C/	2E/	.	.
.	4BB/	.	.	.
=23	=23	=23	=23	=23
0FF	0AA	2D/	[0A	2f\]
.	.	2C/	.	2e\
.	.	[1F	.	2d\
.	.	.	.	2c\
=24.	=24.	=24.	=24.	=24.
1AA	1C	1F]	1A]	1f
1GG	1BB	1E	1B	1g
=25	=25	=25	=25	=25
0FF	0C	0F	1A	1.a
.	.	.	[1c	.
.	.	.	.	4g\
.	.	.	.	4f\
=26.	=26.	=26.	=26.	=26.
0C	1r	0G	2c\]	2e\
.	.	.	4B\	1f
.	.	.	4A/	.
.	1C	.	2G/	.
.	.	.	[2c\	2e\
=27	=27	=27	=27	=27
[0FF	2C/	0F	2c\]	0f
.	1D	.	1A	.
.	4C/	.	[2c\	.
.	4BB/	.	.	.
=28.	=28.	=28.	=28.	=28.
0FF]	2.AA/	0A	4c\]	1r
.	.	.	4B\	.
.	.	.	4A/	.
.	4BB/	.	4G/	.
.	2C/	.	2F/	2r
.	2D\	.	2D/	2f\
=29	=29	=29	=29	=29
0r	2C/	0A	1E	2e\
.	2.AA/	.	.	2.a\
.	.	.	2.A/	.
.	4BB/	.	.	4g\
.	[2C/	.	.	[2e\
.	.	.	4G/	.
=30.	=30.	=30.	=30.	=30.
0r	4C/]	0G	1E	2e\]
.	4BB/	.	.	.
.	2.GG/	.	.	2.g\
.	.	.	2.G/	.
.	4AA/	.	.	4f\
.	[2BB-/	.	.	[2d\
.	.	.	4F/	.
=31	=31	=31	=31	=31
0r	4BB-/]	0F	1D	2d\]
.	4AA/	.	.	.
.	2.FF/	.	.	2.f\
.	.	.	1A	.
.	4GG/	.	.	4e\
.	4AA/	.	.	[2c\
.	4BBni/	.	.	.
=32.	=32.	=32.	=32.	=32.
0r	0C	0E	1G	4c\]
.	.	.	.	4d\
.	.	.	.	4e\
.	.	.	.	4f\
.	.	.	1G	2g\
.	.	.	.	2e\
=33	=33	=33	=33	=33
0r	0r	0D	2F/	1.f
.	.	.	1A	.
.	.	.	4G/	4e\
.	.	.	4F/	4d\
=34.	=34.	=34.	=34.	=34.
0AA	0C	2r	0E	0c
.	.	2.A/	.	.
.	.	4G/	.	.
.	.	[2E/	.	.
=35	=35	=35	=35	=35
0GG	0BB	2E/]	0r	0r
.	.	2.G/	.	.
.	.	4F/	.	.
.	.	[2D/	.	.
=36.	=36.	=36.	=36.	=36.
0FF	0AA	2D/]	0r	0r
.	.	2.F/	.	.
.	.	4E/	.	.
.	.	[2C/	.	.
=37	=37	=37	=37	=37
0EE	0GG	4C/]	2.G/	0e
.	.	4D/	.	.
.	.	4E/	.	.
.	.	4F/	4A/	.
.	.	2G/	2B\	.
.	.	[2E/	2c\	.
=38.	=38.	=38.	=38.	=38.
2.EE/	2.GG/	2E/]	1B	0g
.	.	2.G/	.	.
4FF/	4AA/	.	.	.
1GG	4BB/	.	[1E	.
.	4AA/	4F/	.	.
.	2BB/	4E/	.	.
.	.	4D/	.	.
=39	=39	=39	=39	=39
2AA/	2C/	2C/	2E/]	0e
4GG/	4BB/	1D	2F/	.
4FF/	4AA/	.	.	.
1EE	1GG	.	1G	.
.	.	2C#i/	.	.
=40.	=40.	=40.	=40.	=40.
0DD	[0AA	0D	2.F/	0f
.	.	.	4G/	.
.	.	.	2A/	.
.	.	.	2B\	.
=41	=41	=41	=41	=41
0r	0AA]	0r	2c\	0e
.	.	.	2.d\	.
.	.	.	4c#i\	.
.	.	.	2c#i\	.
=42.	=42.	=42.	=42.	=42.
2r	0r	0r	1d	2d\
2.D\	.	.	.	2.f\
.	.	.	1A	.
4C/	.	.	.	4e\
[2AA/	.	.	.	[2c\
=43	=43	=43	=43	=43
4AA/]	0r	0E	1c	4c\]
4BB/	.	.	.	4d\
4C/	.	.	.	4e\
4D\	.	.	.	4f\
2E\	.	.	[1G	2g\
[2C/	.	.	.	[2e\
=44.	=44.	=44.	=44.	=44.
2C/]	0r	0G	1G]	2e\]
4BB/	.	.	.	2.g\
4AA/	.	.	.	.
1GG	.	.	1B	.
.	.	.	.	4f\
.	.	.	.	4e\
.	.	.	.	4d\
=45	=45	=45	=45	=45
0AA	0r	0E	[0A	2c\
.	.	.	.	1d
.	.	.	.	2c#i\
=46.	=46.	=46.	=46.	=46.
0DD	1.AA	0F	0A]	1d
.	.	.	.	2r
.	2BB/	.	.	2d\
=47	=47	=47	=47	=47
0r	2C/	0E	0r	2e\
.	2.AA/	.	.	2.c\
.	4BB/	.	.	4d\
.	2C/	.	.	2e\
=48.	=48.	=48.	=48.	=48.
2.DD/	2D\	[0Dl	0A	2f\
.	1AA	.	.	2.d\
4EE/	.	.	.	.
2FF/	.	.	.	.
.	.	.	.	4e\
[2DD/	[2F\	.	.	4f\
.	.	.	.	4g\
=49	=49	=49	=49	=49
4DD/]	4F\]	0D_	1A	2a\
4EE/	4E\	.	.	.
2FF/	4D\	.	.	2.d\
.	4C/	.	.	.
2GG/	2BB-i/	.	2G/	.
.	.	.	.	4c\
2DD/	[2D\	.	2F/	2B-i\
=50.	=50.	=50.	=50.	=50.
2FF/	4D\]	0D_	2A/	2A/
.	4C/	.	.	.
1GG	4BB-i/	.	2B-i\	2G/
.	4AA/	.	.	.
.	1BB-i	.	2.G/	1g
2GG/	.	.	.	.
.	.	.	4A/	.
=51	=51	=51	=51	=51
0DDl	0AAl	0D]	0Al	0fl
!!LO:LB:i:g=z
=52||	=52||	=52||	=52||	=52||
*>C	*>C	*>C	*>C	*>C
*clefF4	*clefF4	*clefGv2	*clefGv2	*clefGv2
*k[]	*k[]	*k[]	*k[]	*k[]
*M3/1	*M3/1	*M3/1	*M3/1	*M3/1
*met(O|)	*met(O|)	*met(O|)	*met(O|)	*met(O|)
!!section: Kyrie II
!!!OMD: Kyrie II
0.r	0.r	0.r	0D	0f
.	.	.	1C	2e\
.	.	.	.	2c\
=53	=53	=53	=53	=53
0.r	0.r	0.r	2.F/	2.d\
.	.	.	4G/	4c\
.	.	.	2A/	2A/
.	.	.	1A	2c\
.	.	.	.	1B
.	.	.	2G#i/	.
=54	=54	=54	=54	=54
1r	1r	1r	1A	1A
2.AA/	2.C/	0A	1r	1r
4BB/	4D\	.	.	.
2C/	2E\	.	1r	1r
2D\	2F\	.	.	.
=55	=55	=55	=55	=55
2E\	2G\	1G	0.r	0.r
2.C/	2E\	.	.	.
.	1G	1E	.	.
4D\	.	.	.	.
4E\	.	.	.	.
4C/	.	.	.	.
2D\	2F\	1F	.	.
[2F\	[2D\	.	.	.
=56	=56	=56	=56	=56
2F\]	4D\]	2.G/	0.r	0.r
.	4C/	.	.	.
2.E\	2C/	.	.	.
.	.	4F/	.	.
.	1D	2D/	.	.
4D\	.	.	.	.
1D	.	2F/	.	.
.	1AA	1E	.	.
2C#i/	.	.	.	.
=57	=57	=57	=57	=57
1D	0.r	1D	1r	2r
.	.	.	.	1d
1r	.	1r	1D	.
.	.	.	.	1f
1r	.	1r	1F	.
.	.	.	.	[2d\
=58	=58	=58	=58	=58
0.r	0.r	0.r	1D	2d\]
.	.	.	.	2.f\
.	.	.	2.F/	.
.	.	.	.	4e\
.	.	.	.	2.c\
.	.	.	4G/	.
.	.	.	4A/	.
.	.	.	4B\	4d\
.	.	.	[2c\	4e\
.	.	.	.	4f\
=59	=59	=59	=59	=59
0.r	1r	0.r	2c\]	2g\
.	.	.	4B\	2a\
.	.	.	4A/	.
.	1r	.	2.c\	2e\
.	.	.	.	1a
.	.	.	4d\	.
.	1E	.	1B	.
.	.	.	.	2g#i\
=60	=60	=60	=60	=60
2r	1.F	1r	1A	1a
1D	.	.	.	.
.	.	1A	1r	1r
1C	1E	.	.	.
.	.	1G	1r	1r
[2BB/	[2D\	.	.	.
=61	=61	=61	=61	=61
2BB/]	2D\]	1F	0.r	0.r
1AA	2.C/	.	.	.
.	.	1E	.	.
.	4D\	.	.	.
1C	1E	.	.	.
.	.	1G	.	.
[2GG/	[2BB/	.	.	.
=62	=62	=62	=62	=62
4GG/]	4BB/]	2.D/	0.r	0.r
4AA/	4C/	.	.	.
4BB/	2.D\	.	.	.
4C/	.	4E/	.	.
2.D\	.	4F/	.	.
.	4E\	4G/	.	.
.	2F\	2.A/	.	.
4C/	.	.	.	.
2AA/	2.E\	.	.	.
.	.	4G/	.	.
2C/	.	2E/	.	.
.	4C/	.	.	.
=63	=63	=63	=63	=63
2BB/	2D\	2G/	0.r	2r
2.AA/	2.C/	4F/	.	2.c\
.	.	2E/	.	.
4GG/	4BB/	4D/	.	4d\
2FF/	1AA	1D	.	4e\
.	.	.	.	4f\
1EE	.	.	.	2g\
.	2GG/	2C#i/	.	2e\
=64	=64	=64	=64	=64
0.DD	0.AA	0.D	2r	2f\
.	.	.	2.D/	1d
.	.	.	4E/	.
.	.	.	4F/	4c\
.	.	.	4G/	4B\
.	.	.	2A/	1A
.	.	.	2F/	.
=65	=65	=65	=65	=65
0.r	0.r	0.r	1G	2B\
.	.	.	.	1e
.	.	.	1E	.
.	.	.	.	1g
.	.	.	1G	.
.	.	.	.	[2e\
=66	=66	=66	=66	=66
0.r	0.r	0.r	1E	4e\]
.	.	.	.	4d\
.	.	.	.	4c\
.	.	.	.	4B\
.	.	.	2.F/	2A/
.	.	.	.	1d
.	.	.	4G/	.
.	.	.	1E	.
.	.	.	.	2c#i\
=67	=67	=67	=67	=67
2r	1A	1r	0D	1d
1D	.	.	.	.
.	2F\	1r	.	2r
2BB/	2.G\	.	.	2d\
2.C/	.	1E	1r	2e\
.	4F\	.	.	.
.	2E\	.	.	[2g\
4BB/	.	.	.	.
=68	=68	=68	=68	=68
2GG/	2D\	0G	0.r	4g\]
.	.	.	.	4f\
2C/	2E\	.	.	2e\
2GG/	2BB/	.	.	2d\
2C/	2.E\	.	.	2.e\
4C/	.	1E	.	.
4BB/	4D\	.	.	4f\
4AA/	4C/	.	.	2g\
4GG/	4BB/	.	.	.
=69	=69	=69	=69	=69
3FF/V	0AA	1.F	1.A	1.a
3GG/	.	.	.	.
3AA/Z	.	.	.	.
1DD	.	.	.	.
.	.	4E/	2B\	4g\
.	.	4D/	.	4f\
1AA	1r	1E	1c	2e\
.	.	.	.	[2a\
=70	=70	=70	=70	=70
2r	2r	2D/	2d\	4a\]
.	.	.	.	4g\
2AA/	2.C/	2.A/	1c	2e\
2FF/	.	.	.	2.f\
.	4D\	4F/	.	.
1C	4E\	2.G/	2c\	.
.	4F\	.	.	4d\
.	2G\	.	2.c\	2.e\
.	.	4E/	.	.
2AA/	2A\	[2F/	.	.
.	.	.	8B/L	4c\
.	.	.	8A/J	.
=71	=71	=71	=71	=71
2BB/	2.D\	4F/]	2G/	4d\
.	.	4D/	.	4B\
1AA	.	2E/	2A/	4c\
.	4C/	.	.	4d\
.	2AA/	2C/	[0Al	2e\
2DD/	2.A\	2D/	.	2.d\
1AA	.	1E	.	.
.	4G\	.	.	4c#i\
.	2E\	.	.	2c#i\
=72	=72	=72	=72	=72
1r	0.Fl	0.Dl	0.A]	0.dl
1DD	.	.	.	.
1DDl	.	.	.	.
==	==	==	==	==
*-	*-	*-	*-	*-
!!!RDF**kern: l=long note in original notation
!!!RDF**kern: i=editorial accidental
!!!RDF**kern: V=start of tuplet marker
!!!RDF**kern: Z=end of tuplet marker
!!!ENC:	Chris Gage 01-03-2013
!!!END:	2013/07/20/
!!!EED:	Jesse Rodin
!!!EEV:	2013/08/02/
!!!ONB:	Translated from MusicXML and edited on 2013/08/02/ by Craig Sapp
!!muse2ps: T^@{OPR}^u^@{ONM}{. }@{OTL}^C^@{COM}^i2I150v85,85,85,85,130c160
